Adwaita++/mimetypes/16/text-x-makefile.svg

<svg height="16" width="16" xmlns="http://www.w3.org/2000/svg">
  <path d="m5.1873965 12.307238c1.4226255-1.481008 2.7224314-3.0207491 2.8884509-3.4216058.1660347-.4008567.8206186-1.1924032 1.454657-1.7589921 1.6596326-1.4830866 2.6279546-1.366715 3.4612166.4159748.212296.4541858.504507.8257889.649338.8257889.331276 0 1.858953-1.4870551 1.858953-1.8095243 0-.417789-.783863-1.1378268-1.238661-1.1378268-.479527 0-.938759-.6886299-.938759-1.407685 0-.5448945-1.499986-2.0617323-2.588792-2.6178897-.5188-.2649449-1.4121485-.3954898-2.7074946-.3954898-1.9581354 0-2.7766034.3242835-1.5233726.6038929.3765165.083905 1.0851213.4878614 1.574691.8975244 1.2605745 1.0548661 1.2097663 1.847433-.2279811 3.5558929-.6149518.7308094-1.2688516 1.3286551-1.4531074 1.3286551-.4074784 0-5.8965353 5.1033445-5.8965353 5.4822045 0 .28611 1.68514 2.131842 1.946272 2.131842.08496 0 1.318488-1.211754 2.7411131-2.692762z" fill="#474747"/>
</svg>

<svg xmlns="http://www.w3.org/2000/svg" width="16" height="16" version="1.1">
 <path style="fill:#474747" d="M 5.1873965,12.307238 C 6.610022,10.82623 7.9098279,9.2864889 8.0758474,8.8856322 8.2418821,8.4847755 8.896466,7.693229 9.5305044,7.1266401 11.190137,5.6435535 12.158459,5.7599251 12.991721,7.5426149 c 0.212296,0.4541858 0.504507,0.8257889 0.649338,0.8257889 0.331276,0 1.858953,-1.4870551 1.858953,-1.8095243 0,-0.417789 -0.783863,-1.1378268 -1.238661,-1.1378268 -0.479527,0 -0.938759,-0.6886299 -0.938759,-1.407685 0,-0.5448945 -1.499986,-2.0617323 -2.588792,-2.6178897 C 10.215,1.1305331 9.3216515,0.9999882 8.0263054,0.9999882 6.06817,0.9999882 5.249702,1.3242717 6.5029328,1.6038811 6.8794493,1.6877861 7.5880541,2.0917425 8.0776238,2.5014055 9.3381983,3.5562716 9.2873901,4.3488385 7.8496427,6.0572984 7.2346909,6.7881078 6.5807911,7.3859535 6.3965353,7.3859535 5.9890569,7.3859535 0.5,12.489298 0.5,12.868158 0.5,13.154268 2.18514,15 2.446272,15 2.531232,15 3.76476,13.788246 5.1873851,12.307238 Z"/>
</svg>
